X: 23
T:Minuet. JBa.22
M:3/4
L:1/4
Q:80
S:Joseph Barnes MS,Carlisle,1762.
R:minuet
O:England
A:Carlisle
Z:vmp.C.Graebe.
K:G major
"no key sig" G d/d/d/d/ | B e/e/e/e/ | d d/a/f/a/ | g2d |!
 e c/c/c/c/ | B G/G/G/G/ | c d/c/B/c/ | A3 ||!
A D/D/D/D/ | FAc | B G/G/G/G/ | ceg |!
 f d/d/d/d/ | gab | e e/g/f/a/ | g3 |]
